src/assets/hearts_2.svg

<?xml version="1.0" encoding="UTF-8"?>
<svg xmlns="http://www.w3.org/2000/svg" xmlns:xlink="http://www.w3.org/1999/xlink" width="99px" height="140px" viewBox="0 0 99 140" version="1.1">
<g id="surface1">
<path style="fill-rule:nonzero;fill:rgb(100%,100%,100%);fill-opacity:1;stroke-width:0.755906;stroke-linecap:butt;stroke-linejoin:miter;stroke:rgb(50.196078%,50.196078%,50.196078%);stroke-opacity:1;stroke-miterlimit:4;" d="M 9.297585 719.743103 L 224.702415 719.743103 C 229.632812 719.743103 233.621449 723.747651 233.621449 728.681329 L 233.621449 1043.042991 C 233.621449 1047.976669 229.632812 1051.981217 224.702415 1051.981217 L 9.297585 1051.981217 C 4.367188 1051.981217 0.378551 1047.976669 0.378551 1043.042991 L 0.378551 728.681329 C 0.378551 723.747651 4.367188 719.743103 9.297585 719.743103 Z M 9.297585 719.743103 " transform="matrix(0.423077,0,0,0.42042,0,-302.434542)"/>
<path style=" stroke:none;fill-rule:nonzero;fill:rgb(100%,0%,0%);fill-opacity:1;" d="M 7.273438 25.789062 C 6.902344 24.992188 6.417969 24.246094 5.84375 23.578125 C 5.472656 23.148438 5.066406 22.753906 4.65625 22.367188 C 4.332031 22.0625 4.003906 21.761719 3.742188 21.40625 C 3.5625 21.164062 3.414062 20.894531 3.34375 20.605469 C 3.214844 20.074219 3.355469 19.507812 3.617188 19.03125 C 3.773438 18.753906 3.96875 18.5 4.210938 18.296875 C 4.574219 17.992188 5.042969 17.8125 5.511719 17.851562 C 5.9375 17.886719 6.339844 18.105469 6.652344 18.402344 C 6.925781 18.667969 7.140625 18.996094 7.277344 19.355469 C 7.417969 18.996094 7.632812 18.667969 7.90625 18.402344 C 8.21875 18.105469 8.621094 17.886719 9.046875 17.851562 C 9.515625 17.8125 9.984375 17.992188 10.347656 18.296875 C 10.589844 18.5 10.785156 18.753906 10.941406 19.03125 C 11.203125 19.507812 11.34375 20.074219 11.214844 20.605469 C 11.144531 20.894531 10.996094 21.164062 10.816406 21.40625 C 10.554688 21.761719 10.226562 22.0625 9.902344 22.367188 C 9.492188 22.753906 9.085938 23.148438 8.714844 23.578125 C 8.140625 24.246094 7.65625 24.992188 7.285156 25.789062 "/>
<path style=" stroke:none;fill-rule:nonzero;fill:rgb(100%,0%,0%);fill-opacity:1;" d="M 91.714844 114.210938 C 91.34375 115.007812 90.859375 115.753906 90.285156 116.421875 C 89.914062 116.851562 89.507812 117.246094 89.097656 117.632812 C 88.773438 117.9375 88.445312 118.238281 88.183594 118.59375 C 88.003906 118.835938 87.855469 119.105469 87.785156 119.394531 C 87.65625 119.925781 87.796875 120.492188 88.058594 120.96875 C 88.214844 121.246094 88.410156 121.5 88.652344 121.703125 C 89.015625 122.007812 89.484375 122.1875 89.953125 122.148438 C 90.378906 122.113281 90.78125 121.894531 91.09375 121.597656 C 91.367188 121.332031 91.582031 121.003906 91.722656 120.644531 C 91.859375 121.003906 92.074219 121.332031 92.347656 121.597656 C 92.660156 121.894531 93.0625 122.113281 93.488281 122.148438 C 93.957031 122.1875 94.425781 122.007812 94.789062 121.703125 C 95.03125 121.5 95.226562 121.246094 95.382812 120.96875 C 95.644531 120.492188 95.785156 119.925781 95.65625 119.394531 C 95.585938 119.105469 95.4375 118.835938 95.257812 118.59375 C 94.996094 118.238281 94.667969 117.9375 94.34375 117.632812 C 93.933594 117.246094 93.527344 116.851562 93.15625 116.421875 C 92.582031 115.753906 92.097656 115.007812 91.726562 114.210938 "/>
<path style=" stroke:none;fill-rule:nonzero;fill:rgb(100%,0%,0%);fill-opacity:1;" d="M 49.484375 39.820312 C 48.363281 37.425781 46.914062 35.1875 45.191406 33.191406 C 44.082031 31.902344 42.863281 30.714844 41.625 29.550781 C 40.660156 28.640625 39.675781 27.738281 38.886719 26.667969 C 38.351562 25.945312 37.90625 25.140625 37.695312 24.265625 C 37.3125 22.679688 37.730469 20.976562 38.519531 19.550781 C 38.980469 18.71875 39.570312 17.949219 40.300781 17.339844 C 41.382812 16.433594 42.792969 15.890625 44.191406 16.007812 C 45.476562 16.117188 46.679688 16.769531 47.613281 17.664062 C 48.445312 18.457031 49.089844 19.445312 49.5 20.523438 C 49.910156 19.445312 50.554688 18.457031 51.386719 17.664062 C 52.320312 16.769531 53.523438 16.117188 54.808594 16.007812 C 56.207031 15.890625 57.617188 16.433594 58.699219 17.339844 C 59.429688 17.949219 60.019531 18.71875 60.480469 19.550781 C 61.269531 20.976562 61.6875 22.679688 61.304688 24.265625 C 61.09375 25.140625 60.648438 25.945312 60.113281 26.667969 C 59.324219 27.738281 58.339844 28.640625 57.375 29.550781 C 56.136719 30.714844 54.917969 31.902344 53.808594 33.191406 C 52.085938 35.1875 50.636719 37.425781 49.515625 39.820312 "/>
<path style=" stroke:none;fill-rule:nonzero;fill:rgb(100%,0%,0%);fill-opacity:1;" d="M 49.484375 100.179688 C 48.363281 102.574219 46.914062 104.8125 45.191406 106.808594 C 44.082031 108.097656 42.863281 109.285156 41.625 110.449219 C 40.660156 111.359375 39.675781 112.261719 38.886719 113.332031 C 38.351562 114.054688 37.90625 114.859375 37.695312 115.734375 C 37.3125 117.320312 37.730469 119.023438 38.519531 120.449219 C 38.980469 121.28125 39.570312 122.050781 40.300781 122.660156 C 41.382812 123.566406 42.792969 124.109375 44.191406 123.992188 C 45.476562 123.882812 46.679688 123.230469 47.613281 122.335938 C 48.445312 121.542969 49.089844 120.554688 49.5 119.476562 C 49.910156 120.554688 50.554688 121.542969 51.386719 122.335938 C 52.320312 123.230469 53.523438 123.882812 54.808594 123.992188 C 56.207031 124.109375 57.617188 123.566406 58.699219 122.660156 C 59.429688 122.050781 60.019531 121.28125 60.480469 120.449219 C 61.269531 119.023438 61.6875 117.320312 61.304688 115.734375 C 61.09375 114.859375 60.648438 114.054688 60.113281 113.332031 C 59.324219 112.261719 58.339844 111.359375 57.375 110.449219 C 56.136719 109.285156 54.917969 108.097656 53.808594 106.808594 C 52.085938 104.8125 50.636719 102.574219 49.515625 100.179688 "/>
<path style=" stroke:none;fill-rule:nonzero;fill:rgb(100%,0%,0%);fill-opacity:1;" d="M 11.207031 12.777344 L 10.910156 15.199219 L 3.296875 15.199219 C 3.414062 13.808594 3.957031 12.582031 4.921875 11.519531 L 7.507812 9.246094 C 8.40625 8.445312 8.855469 7.640625 8.855469 6.835938 C 8.855469 6.296875 8.707031 5.867188 8.40625 5.550781 C 8.117188 5.226562 7.710938 5.0625 7.195312 5.0625 C 6.601562 5.0625 6.15625 5.230469 5.863281 5.558594 C 5.671875 5.777344 5.527344 6.113281 5.425781 6.570312 C 5.324219 7.054688 5.246094 7.332031 5.1875 7.410156 C 5.101562 7.4375 5.003906 7.453125 4.890625 7.453125 L 3.886719 7.453125 C 3.769531 7.453125 3.667969 7.425781 3.582031 7.378906 C 3.546875 7.261719 3.527344 7.132812 3.527344 6.992188 C 3.527344 5.84375 3.890625 4.933594 4.621094 4.257812 C 5.316406 3.609375 6.222656 3.285156 7.339844 3.285156 C 8.375 3.285156 9.222656 3.570312 9.882812 4.140625 C 10.585938 4.746094 10.933594 5.574219 10.933594 6.628906 C 10.933594 7.664062 10.546875 8.617188 9.769531 9.476562 C 9.5 9.785156 8.730469 10.441406 7.457031 11.445312 C 6.535156 12.1875 5.964844 12.851562 5.753906 13.445312 L 9.46875 13.445312 L 9.53125 12.703125 C 9.589844 12.441406 9.746094 12.308594 10.003906 12.308594 L 10.800781 12.308594 C 11.109375 12.308594 11.242188 12.464844 11.207031 12.777344 Z M 11.207031 12.777344 "/>
<path style=" stroke:none;fill-rule:nonzero;fill:rgb(100%,0%,0%);fill-opacity:1;" d="M 87.792969 127.222656 L 88.089844 124.800781 L 95.703125 124.800781 C 95.585938 126.191406 95.042969 127.417969 94.078125 128.480469 L 91.492188 130.753906 C 90.59375 131.554688 90.144531 132.359375 90.144531 133.164062 C 90.144531 133.703125 90.292969 134.132812 90.59375 134.449219 C 90.882812 134.773438 91.289062 134.9375 91.804688 134.9375 C 92.398438 134.9375 92.84375 134.769531 93.136719 134.441406 C 93.328125 134.222656 93.472656 133.886719 93.574219 133.429688 C 93.675781 132.945312 93.753906 132.667969 93.8125 132.589844 C 93.898438 132.5625 93.996094 132.546875 94.109375 132.546875 L 95.113281 132.546875 C 95.230469 132.546875 95.332031 132.574219 95.417969 132.621094 C 95.453125 132.738281 95.472656 132.867188 95.472656 133.007812 C 95.472656 134.15625 95.109375 135.066406 94.378906 135.742188 C 93.683594 136.390625 92.777344 136.714844 91.660156 136.714844 C 90.625 136.714844 89.777344 136.429688 89.117188 135.859375 C 88.414062 135.253906 88.066406 134.425781 88.066406 133.371094 C 88.066406 132.335938 88.453125 131.382812 89.230469 130.523438 C 89.5 130.214844 90.269531 129.558594 91.542969 128.554688 C 92.464844 127.8125 93.035156 127.148438 93.246094 126.554688 L 89.53125 126.554688 L 89.46875 127.296875 C 89.410156 127.558594 89.253906 127.691406 88.996094 127.691406 L 88.199219 127.691406 C 87.890625 127.691406 87.757812 127.535156 87.792969 127.222656 Z M 87.792969 127.222656 "/>
</g>
</svg>

<svg xmlns="http://www.w3.org/2000/svg" width="99" height="140"><path d="M9.298 719.743h215.404c4.93 0 8.92 4.005 8.92 8.938v314.362c0 4.934-3.99 8.938-8.92 8.938H9.298c-4.93 0-8.92-4.004-8.92-8.938V728.681c0-4.933 3.99-8.938 8.92-8.938Zm0 0" style="fill-rule:nonzero;fill:#fff;fill-opacity:1;stroke-width:.755906;stroke-linecap:butt;stroke-linejoin:miter;stroke:gray;stroke-opacity:1;stroke-miterlimit:4" transform="matrix(.42308 0 0 .42042 0 -302.435)"/><path d="M7.273 25.79a9.65 9.65 0 0 0-1.43-2.212 16.55 16.55 0 0 0-1.187-1.21c-.324-.305-.652-.606-.914-.962a2.267 2.267 0 0 1-.398-.8c-.13-.532.011-1.098.273-1.575a2.64 2.64 0 0 1 .594-.734c.363-.305.832-.485 1.3-.445.426.035.829.253 1.141.55.274.266.489.594.625.953.141-.359.356-.687.63-.953.312-.297.714-.515 1.14-.55.469-.04.937.14 1.3.445.243.203.438.457.594.734.262.477.403 1.043.274 1.574-.07.29-.219.56-.399.801-.261.356-.59.657-.914.961-.41.387-.816.781-1.187 1.211a9.65 9.65 0 0 0-1.43 2.211M91.715 114.21a9.65 9.65 0 0 1-1.43 2.212c-.37.43-.777.824-1.187 1.21-.325.305-.653.606-.914.962-.18.242-.329.511-.399.8-.129.532.012 1.098.274 1.575.156.277.351.531.593.734.364.305.832.484 1.301.445.426-.035.828-.253 1.14-.55.274-.266.489-.594.63-.953.136.359.351.687.625.953.312.297.715.515 1.14.55.469.04.938-.14 1.301-.445a2.64 2.64 0 0 0 .594-.734c.262-.477.402-1.043.273-1.574a2.267 2.267 0 0 0-.398-.801c-.262-.356-.59-.656-.914-.961a16.55 16.55 0 0 1-1.188-1.211 9.65 9.65 0 0 1-1.43-2.211M49.484 39.82a28.95 28.95 0 0 0-4.293-6.629c-1.109-1.289-2.328-2.476-3.566-3.64-.965-.91-1.95-1.813-2.738-2.883-.535-.723-.98-1.527-1.192-2.402-.383-1.586.035-3.29.825-4.715.46-.832 1.05-1.602 1.78-2.211 1.083-.906 2.493-1.45 3.891-1.332 1.286.11 2.489.762 3.422 1.656a7.778 7.778 0 0 1 1.887 2.86 7.778 7.778 0 0 1 1.887-2.86c.933-.894 2.136-1.547 3.422-1.656 1.398-.117 2.808.426 3.89 1.332.73.61 1.32 1.379 1.781 2.21.79 1.427 1.208 3.13.825 4.716-.211.875-.657 1.68-1.192 2.402-.789 1.07-1.773 1.973-2.738 2.883-1.238 1.164-2.457 2.351-3.566 3.64a28.95 28.95 0 0 0-4.293 6.63M49.484 100.18a28.95 28.95 0 0 1-4.293 6.629c-1.109 1.289-2.328 2.476-3.566 3.64-.965.91-1.95 1.813-2.738 2.883-.535.723-.98 1.527-1.192 2.402-.383 1.586.035 3.29.825 4.715.46.832 1.05 1.602 1.78 2.211 1.083.906 2.493 1.45 3.891 1.332 1.286-.11 2.489-.762 3.422-1.656a7.778 7.778 0 0 0 1.887-2.86 7.778 7.778 0 0 0 1.887 2.86c.933.894 2.136 1.547 3.422 1.656 1.398.117 2.808-.426 3.89-1.332.73-.61 1.32-1.379 1.781-2.21.79-1.427 1.208-3.13.825-4.716-.211-.875-.657-1.68-1.192-2.402-.789-1.07-1.773-1.973-2.738-2.883-1.238-1.164-2.457-2.351-3.566-3.64a28.95 28.95 0 0 1-4.293-6.63M11.207 12.777 10.91 15.2H3.297c.117-1.39.66-2.617 1.625-3.68l2.586-2.273c.898-.8 1.347-1.605 1.347-2.41 0-.54-.148-.969-.449-1.285-.289-.324-.695-.489-1.21-.489-.594 0-1.04.168-1.333.497-.191.218-.336.554-.437 1.011-.102.485-.18.762-.239.84a.97.97 0 0 1-.296.043H3.887a.628.628 0 0 1-.305-.074 1.34 1.34 0 0 1-.055-.387c0-1.148.364-2.058 1.094-2.734.695-.649 1.602-.973 2.719-.973 1.035 0 1.883.285 2.543.856.703.605 1.05 1.433 1.05 2.488 0 1.035-.386 1.988-1.163 2.848-.27.308-1.04.964-2.313 1.968-.922.742-1.492 1.407-1.703 2h3.715l.062-.742c.059-.262.215-.394.473-.394h.797c.308 0 .441.156.406.468ZM87.793 127.223l.297-2.422h7.613c-.117 1.39-.66 2.617-1.625 3.68l-2.586 2.273c-.898.8-1.347 1.605-1.347 2.41 0 .54.148.969.449 1.285.289.324.695.488 1.21.488.594 0 1.04-.167 1.333-.496.191-.218.336-.554.437-1.011.102-.485.18-.762.239-.84a.97.97 0 0 1 .296-.043h1.004c.117 0 .219.027.305.074.035.117.055.246.055.387 0 1.148-.364 2.058-1.094 2.734-.695.649-1.602.973-2.719.973-1.035 0-1.883-.285-2.543-.856-.703-.605-1.05-1.433-1.05-2.488 0-1.035.386-1.988 1.163-2.848.27-.308 1.04-.964 2.313-1.968.922-.743 1.492-1.407 1.703-2h-3.715l-.062.742c-.059.262-.215.394-.473.394H88.2c-.308 0-.441-.156-.406-.468Zm0 0" style="stroke:none;fill-rule:nonzero;fill:red;fill-opacity:1"/></svg>
